packages/client-app/static/animations/inbox-zero/oasis/oasis.hyperesources/desertfill.svg

<svg xmlns="http://www.w3.org/2000/svg" preserveAspectRatio="xMidYMid" width="968.783" height="871.658" viewBox="0 0 968.783 871.658"><defs><style>.cls-1 { fill: #e7d8ab; opacity: 0.2; fill-rule: evenodd; }</style></defs><path d="M968.773 411.008c0 47.119-34.286 86.209-79.266 93.738 2.37 5.508 3.688 11.574 3.688 17.95 0 25.103-20.35 45.453-45.453 45.453h-35.453c16.495 13.574 27.016 34.146 27.016 57.176 0 2.504-.128 4.978-.371 7.418h48.207c27.402 0 49.617 22.214 49.617 49.617s-22.215 49.617-49.617 49.617h-216.196c-21.439 0-39.701-13.599-46.634-32.641h-124.739c2.285 4.847 3.569 10.259 3.569 15.973 0 20.713-16.791 37.504-37.504 37.504h-262.907c-20.712 0-37.503-16.791-37.503-37.504 0-20.713 16.791-37.504 37.503-37.504h43.281c-13.482-13.405-21.831-31.966-21.831-52.48 0-23.535 10.997-44.487 28.119-58.043h-121.197c-19.179 0-34.727-15.548-34.727-34.727v-.015c0-19.179 15.548-34.727 34.727-34.727h86.877c-33.177-14.839-56.307-48.11-56.307-86.805 0-47.004 34.12-86.014 78.939-93.679h-180.259c-33.327 0-60.344-27.017-60.344-60.344s27.017-60.344 60.344-60.344h330.273c25.299 0 46.948 15.575 55.917 37.654.795-.032 1.592-.06 2.395-.06h263.422c22.118 0 41.358 12.308 51.253 30.447 6.529-3.523 13.999-5.525 21.939-5.525h60.961c25.554 0 46.269 20.715 46.269 46.269 0 4.203-.57 8.27-1.62 12.14 44.163 8.201 77.612 46.903 77.612 93.442zm-149.871-246.226h-199c-18.029 0-32.644-14.616-32.644-32.645 0-18.029 14.615-32.644 32.644-32.644h199c18.029 0 32.645 14.615 32.645 32.644 0 18.029-14.616 32.645-32.645 32.645zm-332.097-60.594h-165.3c.503 2.249.776 4.584.776 6.984 0 17.622-14.285 31.907-31.906 31.907h-183.977c-17.621 0-31.906-14.285-31.906-31.907 0-17.621 14.285-31.906 31.906-31.906h63.699c-4.847-7.911-7.644-17.214-7.644-27.172 0-28.77 23.323-52.093 52.094-52.093h272.258c28.77 0 52.093 23.323 52.093 52.093 0 28.771-23.323 52.094-52.093 52.094zm120.91 706.969h180.609c16.709 0 30.254 13.545 30.254 30.254 0 16.708-13.545 30.254-30.254 30.254h-180.609c-16.709 0-30.254-13.546-30.254-30.254 0-16.709 13.545-30.254 30.254-30.254z" class="cls-1"/></svg>

<svg xmlns="http://www.w3.org/2000/svg" xmlns:xlink="http://www.w3.org/1999/xlink" preserveAspectRatio="xMidYMid" width="968.783" height="871.658" viewBox="0 0 968.783 871.658">
  <defs>
    <style>
      .cls-1 {
        fill: #e7d8ab;
        opacity: 0.2;
        fill-rule: evenodd;
      }
    </style>
  </defs>
  <path d="M968.773,411.008 C968.773,458.127 934.487,497.217 889.507,504.746 C891.877,510.254 893.195,516.320 893.195,522.696 C893.195,547.799 872.845,568.149 847.742,568.149 L812.289,568.149 C828.784,581.723 839.305,602.295 839.305,625.325 C839.305,627.829 839.177,630.303 838.934,632.743 L887.141,632.743 C914.543,632.743 936.758,654.957 936.758,682.360 C936.758,709.763 914.543,731.977 887.141,731.977 L670.945,731.977 C649.506,731.977 631.244,718.378 624.311,699.336 L499.572,699.336 C501.857,704.183 503.141,709.595 503.141,715.309 C503.141,736.022 486.350,752.813 465.637,752.813 L202.730,752.813 C182.018,752.813 165.227,736.022 165.227,715.309 C165.227,694.596 182.018,677.805 202.730,677.805 L246.011,677.805 C232.529,664.400 224.180,645.839 224.180,625.325 C224.180,601.790 235.177,580.838 252.299,567.282 L131.102,567.282 C111.923,567.282 96.375,551.734 96.375,532.555 L96.375,532.540 C96.375,513.361 111.923,497.813 131.102,497.813 L217.979,497.813 C184.802,482.974 161.672,449.703 161.672,411.008 C161.672,364.004 195.792,324.994 240.611,317.329 L60.352,317.329 C27.025,317.329 0.008,290.312 0.008,256.985 C0.008,223.658 27.025,196.641 60.352,196.641 L390.625,196.641 C415.924,196.641 437.573,212.216 446.542,234.295 C447.337,234.263 448.134,234.235 448.937,234.235 L712.359,234.235 C734.477,234.235 753.717,246.543 763.612,264.682 C770.141,261.159 777.611,259.157 785.551,259.157 L846.512,259.157 C872.066,259.157 892.781,279.872 892.781,305.426 C892.781,309.629 892.211,313.696 891.161,317.566 C935.324,325.767 968.773,364.469 968.773,411.008 ZM818.902,164.782 L619.902,164.782 C601.873,164.782 587.258,150.166 587.258,132.137 C587.258,114.108 601.873,99.493 619.902,99.493 L818.902,99.493 C836.931,99.493 851.547,114.108 851.547,132.137 C851.547,150.166 836.931,164.782 818.902,164.782 ZM486.805,104.188 L321.505,104.188 C322.008,106.437 322.281,108.772 322.281,111.172 C322.281,128.794 307.996,143.079 290.375,143.079 L106.398,143.079 C88.777,143.079 74.492,128.794 74.492,111.172 C74.492,93.551 88.777,79.266 106.398,79.266 L170.097,79.266 C165.250,71.355 162.453,62.052 162.453,52.094 C162.453,23.324 185.776,0.001 214.547,0.001 L486.805,0.001 C515.575,0.001 538.898,23.324 538.898,52.094 C538.898,80.865 515.575,104.188 486.805,104.188 ZM607.715,811.157 L788.324,811.157 C805.033,811.157 818.578,824.702 818.578,841.411 C818.578,858.119 805.033,871.665 788.324,871.665 L607.715,871.665 C591.006,871.665 577.461,858.119 577.461,841.411 C577.461,824.702 591.006,811.157 607.715,811.157 Z" class="cls-1"/>
</svg>
